X:1
T:[ID 5-21b]
T:[ID 5-21b]
T:Bezeichnung standardisiert: Aldenburger; Aldenburger 6.
T:Urheber unbekannt Datum in der hier transkribierten schriftlichen Quelle: 1775
C:Urheber unbekannt
C:Datum in der hier transkribierten schriftlichen Quelle: 1775
L:1/8
M:4/4
K:G
V:1 treble 
V:1
 B,2 B,2 B,DGA | B2 B2 B4 | c2 d2 e2 f2 | d2 cd B2 cd | e2 c2 d2 e2 | f2 fg f2 e2 | %6
 dc/B/ A/G/F/E/ | F4 F4 :: G2 B2 B4 | F2 A2 A4 | B,2 G2 G4 | F2 F2 F4 | G2 B2 B4 | F2 A2 A4 | %14
 GF/E/ D/C/B,/A,/ | B,4 B,4 :| %16

